X:3414
T:Coopers Hornpipe. FK.04
T:Jock Wilson,aka. FK.04
M:C|
L:1/8
Q:180
C:"Swallow's MS p.121"
S:Hudswell MS
R:Hornpipe
O:England
A:Leeds
N:
Z:vmp.John Bagnall
K:D
AG | FA d2 d2 cB | cd e2 e2 dc | defd gfed | ec A2 ABAG |!
 FA d2d2 cB | cd e2 e2 ag | fdec dABG | F2 D2D2 ::!
((3ABc) | dAFA DFAd | edcB Aceg | fdAF DFAd | edcB A3 A |!
 BGBd gfed | cAce d3 A | BGAF GEAG | F2 D2D2 :|]


